.local/share/icons/Gruvbox-Plus-Dark/apps/16/gahshomar.svg

<svg width="16" height="16" version="1.1" xmlns="http://www.w3.org/2000/svg">
  <defs>
    <style id="current-color-scheme" type="text/css">.ColorScheme-Text { color:#ebdbb2; } .ColorScheme-Highlight { color:#458588; }</style>
  </defs>
  <path class="ColorScheme-Text" d="m3.334 3.088 0.162 4.073c0.01 0.298 0.059 0.541 0.146 0.729 0.086 0.189 0.242 0.329 0.469 0.418 0.226 0.089 0.838 0.134 1.275 0.134 0.172 0 0.327-0.015 0.461-0.045 0.141-0.03 0.273-0.096 0.397-0.201 0.129-0.109 0.264-0.278 0.404-0.506 0.194 0.258 0.432 0.466 0.712 0.625 0.281 0.154 0.555 0.231 0.825 0.231 0.143 0 0.626-0.032 0.752-0.084l0.125 3.169c0.011 0.298 0.06 0.541 0.146 0.73 0.086 0.188 0.243 0.328 0.469 0.417 0.227 0.09 0.558 0.134 0.995 0.134h0.385c0.475 0 0.853-0.035 1.133-0.104 0.281-0.075 0.491-0.169 0.631-0.283s0.232-0.236 0.275-0.365 0.065-0.248 0.065-0.357c0-0.382-0.17-0.76-0.51-1.132-0.334-0.378-0.817-0.802-1.448-1.274 0.173-0.109 0.359-0.216 0.558-0.32 0.205-0.109 0.461-0.233 0.768-0.373 0.299-0.137 0.69-0.313 1.15-0.518 0.063 0.061 0.137 0.112 0.226 0.151 0.172 0.07 0.407 0.105 0.704 0.105 0.431 0 0.771-0.112 1.019-0.335 0.248-0.229 0.372-0.573 0.372-1.035 0-0.149-0.021-0.323-0.064-0.522-0.043-0.198-0.098-0.397-0.162-0.595-0.065-0.204-0.13-0.387-0.194-0.551l-0.656 0.223c0.119 0.283 0.224 0.568 0.316 0.856 0.097 0.288 0.145 0.524 0.145 0.708 0 0.258-0.07 0.429-0.21 0.513-0.14 0.085-0.326 0.127-0.558 0.127-0.211 0-0.369-0.018-0.477-0.052-0.102-0.035-0.173-0.082-0.21-0.141-0.033-0.065-0.049-0.132-0.049-0.202 0-0.084 8e-3 -0.188 0.024-0.313 0.016-0.129 0.035-0.257 0.057-0.386 0.027-0.129 0.048-0.239 0.064-0.328l-0.615-0.104c-0.057 0.357-0.113 0.632-0.165 0.839l-0.191-0.382c-0.506 0.242-0.947 0.466-1.356 0.681 0-2e-3 -2e-3 -4e-3 -2e-3 -7e-3 0-0.139 0.021-0.295 0.064-0.469 0.043-0.173 0.081-0.325 0.114-0.454l-0.607-0.156c-0.087 0.358-0.162 0.635-0.227 0.834-0.064 0.198-0.135 0.344-0.21 0.439-0.07 0.089-0.159 0.147-0.266 0.172-0.108 0.02-0.249 0.029-0.421 0.029h-1e-3c-0.141 0-0.268-0.02-0.381-0.059-0.108-0.045-0.213-0.134-0.316-0.268-0.097-0.134-0.207-0.34-0.331-0.618-0.135-0.298-0.264-0.532-0.388-0.701-0.119-0.174-0.248-0.295-0.388-0.364-0.14-0.075-0.3-0.112-0.478-0.112-0.129 0-0.275 0.032-0.437 0.097-0.156 0.064-0.323 0.181-0.501 0.35-0.172 0.169-0.345 0.412-0.518 0.73-0.129 0.238-0.237 0.426-0.323 0.566-0.081 0.134-0.168 0.23-0.259 0.289-0.087 0.06-0.205 0.09-0.356 0.09-0.308 0-0.814-0.025-0.96-0.074-0.14-0.05-0.232-0.139-0.275-0.268-0.038-0.134-0.062-0.323-0.073-0.566l-0.162-3.835h-0.663zm10.22 0.521c-0.113 0-0.21 0.037-0.291 0.112-0.075 0.074-0.114 0.161-0.114 0.261 0 0.099 0.039 0.186 0.114 0.26 0.081 0.07 0.178 0.104 0.291 0.104 0.108 0 0.2-0.034 0.276-0.104 0.081-0.074 0.12-0.161 0.12-0.26 0-0.1-0.039-0.187-0.12-0.261-0.076-0.075-0.168-0.112-0.276-0.112zm-0.55 0.82c-0.113 0-0.21 0.037-0.291 0.111-0.075 0.075-0.113 0.162-0.113 0.261s0.038 0.185 0.113 0.26c0.081 0.069 0.178 0.104 0.291 0.104 0.108 0 0.199-0.035 0.275-0.104 0.081-0.075 0.121-0.161 0.121-0.26s-0.04-0.186-0.121-0.261c-0.076-0.074-0.167-0.111-0.275-0.111zm1.1 0c-0.113 0-0.21 0.037-0.291 0.111-0.076 0.075-0.113 0.162-0.113 0.261s0.037 0.185 0.113 0.26c0.081 0.069 0.178 0.104 0.291 0.104 0.108 0 0.2-0.035 0.275-0.104 0.081-0.075 0.122-0.161 0.122-0.26s-0.041-0.186-0.122-0.261c-0.075-0.074-0.167-0.111-0.275-0.111zm-12.04 1.451-0.591 0.276c0.146 0.243 0.259 0.446 0.339 0.61 0.081 0.164 0.138 0.311 0.171 0.44 0.032 0.129 0.048 0.263 0.048 0.402 0 0.218-0.056 0.449-0.169 0.692-0.108 0.238-0.311 0.467-0.607 0.686-0.291 0.218-0.709 0.407-1.254 0.565l0.234 0.566c0.168-0.04 0.357-0.104 0.567-0.193 0.216-0.09 0.428-0.204 0.639-0.343 0.215-0.139 0.412-0.308 0.59-0.507 0.183-0.193 0.329-0.416 0.437-0.669 0.113-0.253 0.17-0.537 0.17-0.85 0-0.218-0.046-0.471-0.137-0.759-0.087-0.288-0.232-0.593-0.437-0.916zm5.75 0.425c0.124 0 0.232 0.047 0.323 0.141 0.092 0.089 0.173 0.206 0.243 0.35s0.138 0.29 0.202 0.439c0.054 0.123 0.076 0.23 0.072 0.323l-0.095 0.232c-0.086 0.1-0.212 0.153-0.381 0.153-0.178 0-0.381-0.065-0.607-0.194-0.227-0.134-0.431-0.343-0.614-0.626 0.172-0.312 0.328-0.526 0.468-0.64 0.141-0.114 0.27-0.173 0.389-0.178zm5.402 0.945c-0.048 0.158-0.1 0.286-0.16 0.366-0.064 0.094-0.147 0.153-0.25 0.178-0.102 0.025-0.235 0.037-0.396 0.037-0.114 0-0.205-9e-3 -0.289-0.021 0.342-0.178 0.665-0.349 1.095-0.56zm-1.742 0.891c0.038 0.047 0.079 0.089 0.127 0.122 0.072 0.046 0.148 0.079 0.227 0.105-0.027 0.013-0.072 0.034-0.098 0.047-0.459 0.213-0.795 0.426-1.011 0.64-0.059 0.054-0.103 0.131-0.13 0.23-0.027 0.1-0.04 0.206-0.04 0.321 0 0.044 0.064 0.117 0.194 0.216 0.129 0.099 0.294 0.22 0.493 0.364 0.2 0.144 0.4 0.311 0.599 0.5 0.291 0.268 0.483 0.486 0.575 0.655 0.097 0.169 0.145 0.31 0.145 0.425 0 0.064-0.016 0.128-0.048 0.193-0.027 0.06-0.087 0.117-0.178 0.171-0.087 0.05-0.224 0.092-0.413 0.127-0.188 0.03-0.439 0.044-0.752 0.044h-0.41c-0.307 0-0.534-0.025-0.68-0.074-0.14-0.05-0.232-0.139-0.275-0.268-0.038-0.134-0.061-0.323-0.072-0.566l-0.155-2.983c0.071 0.05 0.113 0.062 0.202 0.095l0.541 0.274c0.316-0.181 0.708-0.396 1.159-0.638zm-5.312 1.227-0.42 0.461 0.234 0.194c-0.383 0.328-0.652 0.641-0.809 0.938-0.151 0.293-0.226 0.539-0.226 0.737 0 0.402 0.131 0.701 0.395 0.894 0.265 0.189 0.597 0.283 0.996 0.283 0.275 0 0.504-0.042 0.687-0.127 0.184-0.089 0.327-0.201 0.429-0.335 0.103-0.139 0.176-0.281 0.219-0.425s0.064-0.272 0.064-0.386c0-0.293-0.073-0.572-0.218-0.835-0.146-0.263-0.338-0.511-0.575-0.744s-0.496-0.452-0.776-0.655zm0.202 0.953c0.226 0.179 0.397 0.342 0.51 0.491 0.113 0.144 0.189 0.278 0.226 0.402 0.038 0.124 0.057 0.243 0.057 0.357 0 0.209-0.07 0.378-0.21 0.507-0.14 0.124-0.345 0.186-0.615 0.186-0.216 0-0.396-0.052-0.542-0.156-0.14-0.104-0.21-0.261-0.21-0.469 0-0.179 0.067-0.388 0.201-0.626 0.141-0.239 0.335-0.469 0.583-0.692z" fill="currentColor"/>
</svg>

<svg xmlns="http://www.w3.org/2000/svg" style="isolation:isolate" width="16" height="16" viewBox="0 0 16 16">
 <defs>
  <style id="current-color-scheme" type="text/css">
   .ColorScheme-Text { color:#ebdbb2; } .ColorScheme-Highlight { color:#458588; }
  </style>
  <linearGradient id="arrongin" x1="0%" x2="0%" y1="0%" y2="100%">
   <stop offset="0%" style="stop-color:#d79921; stop-opacity:1"/>
   <stop offset="100%" style="stop-color:#b57614; stop-opacity:1"/>
  </linearGradient>
  <linearGradient id="aurora" x1="0%" x2="0%" y1="0%" y2="100%">
   <stop offset="0%" style="stop-color:#83a598; stop-opacity:1"/>
   <stop offset="100%" style="stop-color:#b16286; stop-opacity:1"/>
  </linearGradient>
  <linearGradient id="fitdance" x1="0%" x2="0%" y1="0%" y2="100%">
   <stop offset="0%" style="stop-color:#8ec07c; stop-opacity:1"/>
   <stop offset="100%" style="stop-color:#458588; stop-opacity:1"/>
  </linearGradient>
  <linearGradient id="oomox" x1="0%" x2="0%" y1="0%" y2="100%">
   <stop offset="0%" style="stop-color:#458588; stop-opacity:1"/>
   <stop offset="100%" style="stop-color:#928374; stop-opacity:1"/>
  </linearGradient>
  <linearGradient id="rainblue" x1="0%" x2="0%" y1="0%" y2="100%">
   <stop offset="0%" style="stop-color:#b8bb26; stop-opacity:1"/>
   <stop offset="100%" style="stop-color:#076678; stop-opacity:1"/>
  </linearGradient>
  <linearGradient id="sunrise" x1="0%" x2="0%" y1="0%" y2="100%">
   <stop offset="0%" style="stop-color: #fe8019; stop-opacity:1"/>
   <stop offset="100%" style="stop-color: #fabd2f; stop-opacity:1"/>
  </linearGradient>
  <linearGradient id="telinkrin" x1="0%" x2="0%" y1="0%" y2="100%">
   <stop offset="0%" style="stop-color: #83a598; stop-opacity:1"/>
   <stop offset="100%" style="stop-color: #83a598; stop-opacity:1"/>
  </linearGradient>
  <linearGradient id="60spsycho" x1="0%" x2="0%" y1="0%" y2="100%">
   <stop offset="0%" style="stop-color: #fb4934; stop-opacity:1"/>
   <stop offset="25%" style="stop-color: #fabd2f; stop-opacity:1"/>
   <stop offset="50%" style="stop-color: #fe8019; stop-opacity:1"/>
   <stop offset="100%" style="stop-color: #689d6a; stop-opacity:1"/>
  </linearGradient>
  <linearGradient id="90ssummer" x1="0%" x2="0%" y1="0%" y2="100%">
   <stop offset="0%" style="stop-color: #b16286; stop-opacity:1"/>
   <stop offset="20%" style="stop-color: #8ec07c; stop-opacity:1"/>
   <stop offset="50%" style="stop-color: #fabd2f; stop-opacity:1"/>
   <stop offset="100%" style="stop-color: #458588; stop-opacity:1"/>
  </linearGradient>
  <linearGradient id="cyberneon" x1="0%" x2="0%" y1="0%" y2="100%">
    <stop offset="0" style="stop-color:#83a598; stop-opacity:1"/>
    <stop offset="1" style="stop-color:#b16286; stop-opacity:1"/>
  </linearGradient>
  <clipPath id="_clipPath_WZb69SLGva7wi3lJpNWkkE9jG2NRisNV">
   <rect width="16" height="16"/>
  </clipPath>
 </defs>
 <g clip-path="url(#_clipPath_WZb69SLGva7wi3lJpNWkkE9jG2NRisNV)">
  <rect style="fill:currentColor" class="ColorScheme-Text" fill-opacity="0" width="16" height="16"/>
  <path style="fill:currentColor" class="ColorScheme-Text" d="M 3.334 3.088 L 3.496 7.161 C 3.506 7.459 3.555 7.702 3.642 7.89 C 3.728 8.079 3.884 8.219 4.111 8.308 C 4.337 8.397 4.949 8.442 5.386 8.442 C 5.558 8.442 5.713 8.427 5.847 8.397 C 5.988 8.367 6.12 8.301 6.244 8.196 C 6.373 8.087 6.508 7.918 6.648 7.69 C 6.842 7.948 7.08 8.156 7.36 8.315 C 7.641 8.469 7.915 8.546 8.185 8.546 C 8.328 8.546 8.811 8.514 8.937 8.462 L 9.062 11.631 C 9.073 11.929 9.122 12.172 9.208 12.361 C 9.294 12.549 9.451 12.689 9.677 12.778 C 9.904 12.868 10.235 12.912 10.672 12.912 L 11.057 12.912 C 11.532 12.912 11.91 12.877 12.19 12.808 C 12.471 12.733 12.681 12.639 12.821 12.525 C 12.961 12.411 13.053 12.289 13.096 12.16 C 13.139 12.031 13.161 11.912 13.161 11.803 C 13.161 11.421 12.991 11.043 12.651 10.671 C 12.317 10.293 11.834 9.869 11.203 9.397 C 11.376 9.288 11.562 9.181 11.761 9.077 C 11.966 8.968 12.222 8.844 12.529 8.704 C 12.828 8.567 13.219 8.391 13.679 8.186 C 13.742 8.247 13.816 8.298 13.905 8.337 C 14.077 8.407 14.312 8.442 14.609 8.442 C 15.04 8.442 15.38 8.33 15.628 8.107 C 15.876 7.878 16 7.534 16 7.072 C 16 6.923 15.979 6.749 15.936 6.55 C 15.893 6.352 15.838 6.153 15.774 5.955 C 15.709 5.751 15.644 5.568 15.58 5.404 L 14.924 5.627 C 15.043 5.91 15.148 6.195 15.24 6.483 C 15.337 6.771 15.385 7.007 15.385 7.191 C 15.385 7.449 15.315 7.62 15.175 7.704 C 15.035 7.789 14.849 7.831 14.617 7.831 C 14.406 7.831 14.248 7.813 14.14 7.779 C 14.038 7.744 13.967 7.697 13.93 7.638 C 13.897 7.573 13.881 7.506 13.881 7.436 C 13.881 7.352 13.889 7.248 13.905 7.123 C 13.921 6.994 13.94 6.866 13.962 6.737 C 13.989 6.608 14.01 6.498 14.026 6.409 L 13.411 6.305 C 13.354 6.662 13.298 6.937 13.246 7.144 L 13.055 6.762 C 12.549 7.004 12.108 7.228 11.699 7.443 C 11.699 7.441 11.697 7.439 11.697 7.436 C 11.697 7.297 11.718 7.141 11.761 6.967 C 11.804 6.794 11.842 6.642 11.875 6.513 L 11.268 6.357 C 11.181 6.715 11.106 6.992 11.041 7.191 C 10.977 7.389 10.906 7.535 10.831 7.63 C 10.761 7.719 10.672 7.777 10.565 7.802 C 10.457 7.822 10.316 7.831 10.144 7.831 C 10.143 7.831 10.143 7.831 10.143 7.831 C 10.002 7.831 9.875 7.811 9.762 7.772 C 9.654 7.727 9.549 7.638 9.446 7.504 C 9.349 7.37 9.239 7.164 9.115 6.886 C 8.98 6.588 8.851 6.354 8.727 6.185 C 8.608 6.011 8.479 5.89 8.339 5.821 C 8.199 5.746 8.039 5.709 7.861 5.709 C 7.732 5.709 7.586 5.741 7.424 5.806 C 7.268 5.87 7.101 5.987 6.923 6.156 C 6.751 6.325 6.578 6.568 6.405 6.886 C 6.276 7.124 6.168 7.312 6.082 7.452 C 6.001 7.586 5.914 7.682 5.823 7.741 C 5.736 7.801 5.618 7.831 5.467 7.831 C 5.159 7.831 4.653 7.806 4.507 7.757 C 4.367 7.707 4.275 7.618 4.232 7.489 C 4.194 7.355 4.17 7.166 4.159 6.923 L 3.997 3.088 L 3.334 3.088 Z M 13.549 3.609 C 13.436 3.609 13.339 3.646 13.258 3.721 C 13.183 3.795 13.144 3.882 13.144 3.982 C 13.144 4.081 13.183 4.168 13.258 4.242 C 13.339 4.312 13.436 4.346 13.549 4.346 C 13.657 4.346 13.749 4.312 13.825 4.242 C 13.906 4.168 13.945 4.081 13.945 3.982 C 13.945 3.882 13.906 3.795 13.825 3.721 C 13.749 3.646 13.657 3.609 13.549 3.609 Z M 12.999 4.429 C 12.886 4.429 12.789 4.466 12.708 4.54 C 12.633 4.615 12.595 4.702 12.595 4.801 C 12.595 4.9 12.633 4.986 12.708 5.061 C 12.789 5.13 12.886 5.165 12.999 5.165 C 13.107 5.165 13.198 5.13 13.274 5.061 C 13.355 4.986 13.395 4.9 13.395 4.801 C 13.395 4.702 13.355 4.615 13.274 4.54 C 13.198 4.466 13.107 4.429 12.999 4.429 Z M 14.099 4.429 C 13.986 4.429 13.889 4.466 13.808 4.54 C 13.732 4.615 13.695 4.702 13.695 4.801 C 13.695 4.9 13.732 4.986 13.808 5.061 C 13.889 5.13 13.986 5.165 14.099 5.165 C 14.207 5.165 14.299 5.13 14.374 5.061 C 14.455 4.986 14.496 4.9 14.496 4.801 C 14.496 4.702 14.455 4.615 14.374 4.54 C 14.299 4.466 14.207 4.429 14.099 4.429 Z M 2.063 5.88 L 1.472 6.156 C 1.618 6.399 1.731 6.602 1.811 6.766 C 1.892 6.93 1.949 7.077 1.982 7.206 C 2.014 7.335 2.03 7.469 2.03 7.608 C 2.03 7.826 1.974 8.057 1.861 8.3 C 1.753 8.538 1.55 8.767 1.254 8.986 C 0.963 9.204 0.545 9.393 0 9.551 L 0.234 10.117 C 0.402 10.077 0.591 10.013 0.801 9.924 C 1.017 9.834 1.229 9.72 1.44 9.581 C 1.655 9.442 1.852 9.273 2.03 9.074 C 2.213 8.881 2.359 8.658 2.467 8.405 C 2.58 8.152 2.637 7.868 2.637 7.555 C 2.637 7.337 2.591 7.084 2.5 6.796 C 2.413 6.508 2.268 6.203 2.063 5.88 L 2.063 5.88 Z M 7.813 6.305 C 7.937 6.305 8.045 6.352 8.136 6.446 C 8.228 6.535 8.309 6.652 8.379 6.796 C 8.449 6.94 8.517 7.086 8.581 7.235 C 8.635 7.358 8.657 7.465 8.653 7.558 L 8.558 7.79 C 8.472 7.89 8.346 7.943 8.177 7.943 C 7.999 7.943 7.796 7.878 7.57 7.749 C 7.343 7.615 7.139 7.406 6.956 7.123 C 7.128 6.811 7.284 6.597 7.424 6.483 C 7.565 6.369 7.694 6.31 7.813 6.305 L 7.813 6.305 Z M 13.215 7.25 C 13.167 7.408 13.115 7.536 13.055 7.616 C 12.991 7.71 12.908 7.769 12.805 7.794 C 12.703 7.819 12.57 7.831 12.409 7.831 C 12.295 7.831 12.204 7.822 12.12 7.81 C 12.462 7.632 12.785 7.461 13.215 7.25 L 13.215 7.25 Z M 11.473 8.141 C 11.511 8.188 11.552 8.23 11.6 8.263 C 11.672 8.309 11.748 8.342 11.827 8.368 C 11.8 8.381 11.755 8.402 11.729 8.415 C 11.27 8.628 10.934 8.841 10.718 9.055 C 10.659 9.109 10.615 9.186 10.588 9.285 C 10.561 9.385 10.548 9.491 10.548 9.606 C 10.548 9.65 10.612 9.723 10.742 9.822 C 10.871 9.921 11.036 10.042 11.235 10.186 C 11.435 10.33 11.635 10.497 11.834 10.686 C 12.125 10.954 12.317 11.172 12.409 11.341 C 12.506 11.51 12.554 11.651 12.554 11.766 C 12.554 11.83 12.538 11.894 12.506 11.959 C 12.479 12.019 12.419 12.076 12.328 12.13 C 12.241 12.18 12.104 12.222 11.915 12.257 C 11.727 12.287 11.476 12.301 11.163 12.301 L 10.753 12.301 C 10.446 12.301 10.219 12.276 10.073 12.227 C 9.933 12.177 9.841 12.088 9.798 11.959 C 9.76 11.825 9.737 11.636 9.726 11.393 L 9.571 8.41 C 9.642 8.46 9.684 8.472 9.773 8.505 L 9.773 8.505 L 10.314 8.779 C 10.63 8.598 11.022 8.383 11.473 8.141 L 11.473 8.141 Z M 6.161 9.368 L 5.741 9.829 L 5.975 10.023 C 5.592 10.351 5.323 10.664 5.166 10.961 C 5.015 11.254 4.94 11.5 4.94 11.698 C 4.94 12.1 5.071 12.399 5.335 12.592 C 5.6 12.781 5.932 12.875 6.331 12.875 C 6.606 12.875 6.835 12.833 7.018 12.748 C 7.202 12.659 7.345 12.547 7.447 12.413 C 7.55 12.274 7.623 12.132 7.666 11.988 C 7.709 11.844 7.73 11.716 7.73 11.602 C 7.73 11.309 7.657 11.03 7.512 10.767 C 7.366 10.504 7.174 10.256 6.937 10.023 C 6.7 9.79 6.441 9.571 6.161 9.368 L 6.161 9.368 Z M 6.363 10.321 C 6.589 10.5 6.76 10.663 6.873 10.812 C 6.986 10.956 7.062 11.09 7.099 11.214 C 7.137 11.338 7.156 11.457 7.156 11.571 C 7.156 11.78 7.086 11.949 6.946 12.078 C 6.806 12.202 6.601 12.264 6.331 12.264 C 6.115 12.264 5.935 12.212 5.789 12.108 C 5.649 12.004 5.579 11.847 5.579 11.639 C 5.579 11.46 5.646 11.251 5.78 11.013 C 5.921 10.774 6.115 10.544 6.363 10.321 L 6.363 10.321 Z"/>
 </g>
</svg>
